public/assets/images/icons/instagram.svg

<svg width="24" height="24" viewBox="0 0 24 24" fill="none" xmlns="http://www.w3.org/2000/svg">
<path d="M20.947 8.30447C20.9369 7.54709 20.7951 6.79724 20.528 6.08847C20.2964 5.49062 19.9425 4.94767 19.4892 4.4943C19.0358 4.04093 18.4929 3.68712 17.895 3.45547C17.1953 3.19283 16.4562 3.05081 15.709 3.03547C14.747 2.99247 14.442 2.98047 12 2.98047C9.558 2.98047 9.245 2.98047 8.29 3.03547C7.54316 3.05092 6.80435 3.19294 6.105 3.45547C5.50706 3.68696 4.96402 4.04071 4.51063 4.4941C4.05725 4.94749 3.70349 5.49053 3.472 6.08847C3.20883 6.7876 3.06712 7.52658 3.053 8.27347C3.01 9.23647 2.997 9.54147 2.997 11.9835C2.997 14.4255 2.997 14.7375 3.053 15.6935C3.068 16.4415 3.209 17.1795 3.472 17.8805C3.70388 18.4782 4.0579 19.021 4.51144 19.4742C4.96498 19.9274 5.50807 20.281 6.106 20.5125C6.80344 20.7857 7.54237 20.9378 8.291 20.9625C9.254 21.0055 9.559 21.0185 12.001 21.0185C14.443 21.0185 14.756 21.0185 15.711 20.9625C16.4582 20.9478 17.1974 20.8061 17.897 20.5435C18.4947 20.3116 19.0375 19.9576 19.4908 19.5043C19.9442 19.051 20.2981 18.5082 20.53 17.9105C20.793 17.2105 20.934 16.4725 20.949 15.7235C20.992 14.7615 21.005 14.4565 21.005 12.0135C21.003 9.57147 21.003 9.26147 20.947 8.30447ZM11.994 16.6015C9.44 16.6015 7.371 14.5325 7.371 11.9785C7.371 9.42447 9.44 7.35547 11.994 7.35547C13.2201 7.35547 14.396 7.84253 15.263 8.70951C16.1299 9.5765 16.617 10.7524 16.617 11.9785C16.617 13.2046 16.1299 14.3804 15.263 15.2474C14.396 16.1144 13.2201 16.6015 11.994 16.6015ZM16.801 8.26247C16.6594 8.2626 16.5192 8.23481 16.3883 8.18068C16.2575 8.12655 16.1386 8.04715 16.0384 7.94702C15.9383 7.8469 15.8589 7.72801 15.8048 7.59716C15.7507 7.46631 15.7229 7.32607 15.723 7.18447C15.723 7.04297 15.7509 6.90286 15.805 6.77213C15.8592 6.6414 15.9385 6.52262 16.0386 6.42256C16.1386 6.32251 16.2574 6.24314 16.3882 6.18899C16.5189 6.13484 16.659 6.10697 16.8005 6.10697C16.942 6.10697 17.0821 6.13484 17.2128 6.18899C17.3436 6.24314 17.4624 6.32251 17.5624 6.42256C17.6625 6.52262 17.7418 6.6414 17.796 6.77213C17.8501 6.90286 17.878 7.04297 17.878 7.18447C17.878 7.78047 17.396 8.26247 16.801 8.26247Z" fill="white"/>
<path d="M11.994 14.9826C13.6525 14.9826 14.997 13.6381 14.997 11.9796C14.997 10.3211 13.6525 8.97656 11.994 8.97656C10.3355 8.97656 8.991 10.3211 8.991 11.9796C8.991 13.6381 10.3355 14.9826 11.994 14.9826Z" fill="white"/>
</svg>

<svg width="24" height="24" fill="none" xmlns="http://www.w3.org/2000/svg"><path d="M20.947 8.304a6.531 6.531 0 00-.419-2.216 4.61 4.61 0 00-2.633-2.633 6.606 6.606 0 00-2.186-.42c-.962-.043-1.267-.055-3.709-.055s-2.755 0-3.71.055a6.606 6.606 0 00-2.185.42 4.607 4.607 0 00-2.633 2.633 6.554 6.554 0 00-.419 2.185c-.043.963-.056 1.268-.056 3.71s0 2.755.056 3.71c.015.749.156 1.487.419 2.188a4.61 4.61 0 002.634 2.631 6.586 6.586 0 002.185.45c.963.044 1.268.056 3.71.056s2.755 0 3.71-.056a6.59 6.59 0 002.186-.418 4.615 4.615 0 002.633-2.634c.263-.7.404-1.438.419-2.187.043-.962.056-1.267.056-3.71-.002-2.442-.002-2.752-.058-3.709zm-8.953 8.298a4.622 4.622 0 01-4.623-4.623 4.622 4.622 0 114.623 4.623zm4.807-8.34a1.077 1.077 0 11-.002-2.154 1.077 1.077 0 01.002 2.154z" fill="#fff"/><path d="M11.994 14.983a3.003 3.003 0 100-6.006 3.003 3.003 0 000 6.006z" fill="#fff"/></svg>
